X:71
T:Jenny Dang the Weaver. Ru1.071
%%VWML:RutherfordVol1-2248-p36-0p36
Z:Transcription by Village Music Project, Steve Mansfield July 2015
F:http://www.village-music-project.org.uk/
F:http://www.vwml.org/record/RutherfordVol1/2248/p36
N: * This repeat sign is not shown in the original but has been added to balance the repeat.
M:C|
Q:1/2=90
K:D
g"*"|:fA A/A/A ABAg|fA A/A/A f2e>d|dB B/B/B B>cdB|A>Bde f2 ed:|
|: d>efd e>fge|d>efd e2 dB|d>efd e>fge|(f/g/a) Aa f2 ed |]
W:
W: Foot it & cast off turn .|  The 2d. Cu. does the same :|
W: Cross over two Cu. .|.  Foot it to your Partner & cast
W: up into the 2d. Cous. place :||:  The man sets to the Top
W: Wo. & turns her .||  The Wo. does the same to the Top
W: Man :||  Foot it to your Partner & the Man casts off
W: & the Wo. casts up .||.  Foot it again & the Man casts
W: up & the Wo. cast off :|
|:
T:Up and war them a Willie. Ru1.072
L:1/8
B:RUTHERFORD Complete Collection of 200 Country Dances Vol.1; London: David & John Rutherford 1756.
Z:vmp.Mike Hicken 2015 www.village-music-project.org.uk
M:C|
Q:1/4=120
K:A
F|A/A/A cA d>edf|A/A/A c>A B>cBe|A/A/A c>A defa|edcB A2A||
f/g/|(a/g/f/e/) (f/e/d/c/) d>ed(f/g/)|(a/g/f/e/) (f/e/d/c/) B>cB(f/g/)|(a/g/f/e/) (f/e/d/c/) defa|edcB A>B A |]
W:
W: The first Cu. Figure thro. the 2d. Cu. & cast up & Foot
W: it at Top .|  The 2d. Cu. do the same :|  Then all four
W: take Hands the first Cu. Lead up & the 2d. Lead down
W: at the same time .|.  Then the first & 2d. Cu. Minuet
W: step & first Cu. cast off :|
|:
